assets/images/whatsApp.svg

<svg width="33" height="32" viewBox="0 0 33 32" fill="none" xmlns="http://www.w3.org/2000/svg">
<path fill-rule="evenodd" clip-rule="evenodd" d="M32.4972 23.8731C32.4972 24.0473 32.4972 24.428 32.4823 24.7216C32.4683 25.4129 32.4118 26.1026 32.313 26.7869C32.1984 27.3908 32.0033 27.9767 31.733 28.5288C31.14 29.6975 30.1896 30.6468 29.0199 31.2386C28.4676 31.5086 27.8816 31.7036 27.2775 31.8184C26.5979 31.9155 25.9129 31.9712 25.2265 31.9851C24.9328 31.9851 24.552 32 24.3777 32H8.62912C8.45488 32 8.07406 32 7.78034 31.9851C7.08887 31.9711 6.3989 31.9146 5.71438 31.8159C5.11028 31.7013 4.52427 31.5063 3.972 31.2361C2.80289 30.6432 1.85336 29.6931 1.26136 28.5238C0.991244 27.9716 0.79619 27.3858 0.681395 26.782C0.584216 26.1025 0.528527 25.4178 0.514629 24.7316C0.514629 24.438 0.499695 24.0572 0.499695 23.883V8.1269C0.499695 7.95272 0.499694 7.57201 0.514629 7.27838C0.528593 6.58712 0.585118 5.89737 0.683887 5.21306C0.798508 4.60916 0.993561 4.02333 1.26385 3.47122C1.85692 2.30248 2.80733 1.35324 3.97698 0.76143C4.52933 0.491396 5.11531 0.296403 5.71936 0.181644C6.39901 0.0844823 7.08396 0.0288105 7.77038 0.0149294C8.0641 0.0149294 8.44493 0 8.61917 0H24.3703C24.5445 0 24.9253 -6.0717e-07 25.219 0.0149294C25.9105 0.0289081 26.6005 0.0854154 27.285 0.184134C27.8891 0.29872 28.4751 0.493713 29.0274 0.763914C30.1965 1.3568 31.146 2.30692 31.738 3.47621C32.0081 4.02838 32.2032 4.61418 32.318 5.21804C32.4152 5.89749 32.4709 6.58221 32.4848 7.26843C32.4848 7.56205 32.4997 7.94277 32.4997 8.11695L32.4972 23.8731Z" fill="url(#paint0_linear_24_3514)"/>
<path fill-rule="evenodd" clip-rule="evenodd" d="M24.9179 7.66656C22.9631 5.70862 20.3628 4.52811 17.6017 4.34508C14.8406 4.16206 12.1071 4.98901 9.91086 6.67179C7.71459 8.35457 6.20537 10.7783 5.66455 13.4913C5.12372 16.2042 5.58819 19.0212 6.97138 21.4171L5.35346 27.3219L11.397 25.7369C13.069 26.6465 14.9422 27.123 16.8457 27.1229C19.1004 27.1226 21.3045 26.4541 23.1792 25.2019C25.054 23.9496 26.5153 22.1698 27.3784 20.0875C28.2416 18.0051 28.4678 15.7137 28.0285 13.5029C27.5892 11.292 26.5041 9.26103 24.9104 7.66656H24.9179ZM16.8507 25.2068C15.1517 25.2053 13.4845 24.7463 12.0243 23.8781L11.6783 23.674L8.09148 24.6146L9.04978 21.1309L8.82328 20.7726C7.70512 18.9937 7.21009 16.8937 7.41603 14.8028C7.62197 12.7119 8.51719 10.7487 9.96094 9.22191C11.4047 7.69512 13.3151 6.69132 15.3918 6.36832C17.4684 6.04532 19.5936 6.42145 21.4331 7.43757C23.2726 8.45369 24.7222 10.0522 25.5538 11.9817C26.3854 13.9112 26.552 16.0623 26.0274 18.0968C25.5027 20.1313 24.3165 21.9337 22.6554 23.2208C20.9942 24.5078 18.9523 25.2065 16.8507 25.2068ZM22.0479 18.1126C21.7642 17.9708 20.3628 17.2815 20.1014 17.1869C19.8401 17.0924 19.6509 17.0451 19.4592 17.3288C19.2676 17.6124 18.7125 18.2544 18.5582 18.446C18.4039 18.6376 18.2247 18.66 17.9409 18.5182C17.1012 18.1836 16.3263 17.7053 15.6509 17.1048C15.0277 16.529 14.4934 15.864 14.0653 15.1316C13.8986 14.8454 14.0479 14.6936 14.1898 14.5493C14.3317 14.405 14.4736 14.2159 14.6179 14.0516C14.7347 13.9076 14.8303 13.7475 14.9017 13.5764C14.9391 13.4978 14.9564 13.4113 14.9521 13.3244C14.9477 13.2375 14.9218 13.1531 14.8768 13.0787C14.8046 12.9369 14.2346 11.5359 13.9981 10.9636C13.7617 10.3913 13.5327 10.4834 13.3559 10.4659C13.1792 10.4485 13 10.4659 12.8108 10.4659C12.6666 10.4698 12.5247 10.5034 12.3941 10.5646C12.2635 10.6259 12.1469 10.7134 12.0516 10.8218C11.7297 11.127 11.4748 11.4959 11.3034 11.9051C11.132 12.3142 11.0477 12.7546 11.056 13.1981C11.056 14.5991 12.0765 15.9527 12.2184 16.1443C12.3603 16.3359 14.2271 19.2099 17.0846 20.4442C17.6155 20.6725 18.158 20.8727 18.71 21.0439C19.2914 21.2201 19.9059 21.2585 20.5047 21.1558C21.0523 21.0737 22.1898 20.4666 22.4287 19.8022C22.6677 19.1378 22.6777 18.558 22.5955 18.4485C22.5134 18.339 22.3342 18.2395 22.0504 18.1051L22.0479 18.1126Z" fill="white"/>
<defs>
<linearGradient id="paint0_linear_24_3514" x1="16.5047" y1="31.99" x2="16.5047" y2="0.00995398" gradientUnits="userSpaceOnUse">
<stop stop-color="#25CF43"/>
<stop offset="1" stop-color="#61FD7D"/>
</linearGradient>
</defs>
</svg>

<?xml version="1.0" encoding="UTF-8"?>
<svg id="Layer_1" xmlns="http://www.w3.org/2000/svg" xmlns:xlink="http://www.w3.org/1999/xlink" version="1.1" viewBox="0 0 33 32">
  <!-- Generator: Adobe Illustrator 29.5.1, SVG Export Plug-In . SVG Version: 2.1.0 Build 141)  -->
  <defs>
    <style>
      .st0 {
        fill: #fff;
      }

      .st0, .st1 {
        fill-rule: evenodd;
      }

      .st1 {
        fill: url(#linear-gradient);
      }
    </style>
    <linearGradient id="linear-gradient" x1="16.5" y1="2" x2="16.5" y2="34" gradientTransform="translate(0 34) scale(1 -1)" gradientUnits="userSpaceOnUse">
      <stop offset="0" stop-color="#25cf43"/>
      <stop offset="1" stop-color="#61fd7d"/>
    </linearGradient>
  </defs>
  <path class="st1" d="M32.5,23.87c0,.17,0,.55-.01.85-.01.69-.07,1.38-.17,2.07-.11.6-.31,1.19-.58,1.74-.59,1.17-1.54,2.12-2.71,2.71-.55.27-1.14.47-1.74.58-.68.1-1.36.15-2.05.17-.29,0-.67.01-.85.01h-15.75c-.17,0-.56,0-.85-.01-.69-.01-1.38-.07-2.07-.17-.6-.11-1.19-.31-1.74-.58-1.17-.59-2.12-1.54-2.71-2.71-.27-.55-.47-1.14-.58-1.74-.1-.68-.15-1.36-.17-2.05,0-.29-.01-.67-.01-.85v-15.76c0-.17,0-.55.01-.85.01-.69.07-1.38.17-2.07.11-.6.31-1.19.58-1.74.59-1.17,1.54-2.12,2.71-2.71.55-.27,1.14-.47,1.74-.58C6.4.08,7.08.03,7.77.01c.29,0,.67-.01.85-.01h15.75c.17,0,.56,0,.85.01.69.01,1.38.07,2.07.17.6.11,1.19.31,1.74.58,1.17.59,2.12,1.54,2.71,2.71.27.55.47,1.14.58,1.74.1.68.15,1.36.17,2.05,0,.29.01.67.01.85v15.76Z"/>
  <path class="st0" d="M24.92,7.67c-1.95-1.96-4.56-3.14-7.32-3.32-2.76-.18-5.49.64-7.69,2.33-2.2,1.68-3.71,4.11-4.25,6.82-.54,2.71-.08,5.53,1.31,7.93l-1.62,5.9,6.04-1.58c1.67.91,3.55,1.39,5.45,1.39,2.25,0,4.46-.67,6.33-1.92,1.87-1.25,3.34-3.03,4.2-5.11.86-2.08,1.09-4.37.65-6.58-.44-2.21-1.52-4.24-3.12-5.84h0ZM16.85,25.21c-1.7,0-3.37-.46-4.83-1.33l-.35-.2-3.59.94.96-3.48-.23-.36c-1.12-1.78-1.61-3.88-1.41-5.97.21-2.09,1.1-4.05,2.54-5.58,1.44-1.53,3.35-2.53,5.43-2.85,2.08-.32,4.2.05,6.04,1.07,1.84,1.02,3.29,2.61,4.12,4.54s1,4.08.47,6.12c-.52,2.03-1.71,3.84-3.37,5.12-1.66,1.29-3.7,1.99-5.8,1.99ZM22.05,18.11c-.28-.14-1.69-.83-1.95-.93-.26-.09-.45-.14-.64.14-.19.28-.75.93-.9,1.12-.15.19-.33.21-.62.07-.84-.33-1.61-.81-2.29-1.41-.62-.58-1.16-1.24-1.59-1.97-.17-.29-.02-.44.12-.58.14-.14.28-.33.43-.5.12-.14.21-.3.28-.48.04-.08.05-.17.05-.25,0-.09-.03-.17-.08-.25-.07-.14-.64-1.54-.88-2.12-.24-.57-.47-.48-.64-.5-.18-.02-.36,0-.55,0-.14,0-.29.04-.42.1-.13.06-.25.15-.34.26-.32.31-.58.67-.75,1.08-.17.41-.26.85-.25,1.29,0,1.4,1.02,2.75,1.16,2.95.14.19,2.01,3.07,4.87,4.3.53.23,1.07.43,1.63.6.58.18,1.2.21,1.79.11.55-.08,1.69-.69,1.92-1.35.24-.66.25-1.24.17-1.35-.08-.11-.26-.21-.55-.34h0Z"/>
</svg>
